X:6
T:Vaudeville
B:XVIIIeme
M:4/4
L:1/8
Q:C4=60
K:Am
cdcB |: A2 AB B3 A/B/ | c2 c2 cdcB | A2 AB B3 A/B/ |1 c4 cdcB :|
|2 c4 c2 cd |: e2 e2 d2 c2 | B4 cdcB | AGAB ABcA |
B2 B2 cdcB | AGAB B3 A |1 A4 c2 cd :|2 A4 ||
